Saturated.cube
TITLE "Created by (at)Art_Is_War on Twitter *sipstea*"
LUT_3D_SIZE 33
0.0107271 0.0115053 0.0148775
0.0363775 0.0183719 0.031632
0.055314 0.0218662 0.0269169
0.0927291 0.01944 0.0135042
0.12047 0.0218662 0.0197147
0.153674 0.0229496 0.0185855
0.188159 0.0237888 0.0111849
0.22446 0.0240024 0.00225834
0.263035 0.0237278 0.00448615
0.304494 0.0227817 0.00495918
0.348455 0.0211643 0.00254826
0.393835 0.019028 0.000366217
0.441199 0.0162356 0
0.489937 0.0129854 0
0.540108 0.00959792 0
0.59057 0.00653086 0
0.639948 0.00367742 0
0.691279 0.000900282 0
0.743984 0 0
0.796948 0 0
0.849317 0 0
0.899001 0 0
0.945525 0 0
0.990158 0 0
1 0 0
1 0 0
1 0 0
1 0 0
1 0 0
1 0 0
1 0 0
1 0 0
1 0 0
0.0267338 0.0459754 0.0253605
0.0456245 0.0488594 0.0251316
0.0797284 0.0493172 0.0187533
0.113817 0.0502785 0.0101778
0.150225 0.0504311 0.00505074
0.18764 0.0502785 0.00596628
0.22536 0.0502022 0.00547799
0.2654 0.0496071 0.00315862
0.30811 0.0484627 0.000732433
0.35259 0.0467536 0
0.398383 0.0445258 0
0.445655 0.0417945 0
0.494285 0.0385443 0
0.544289 0.0347143 0
0.593469 0.0304723 0
0.64184 0.0259709 0
0.69099 0.02121 0
0.739712 0.016495 0
0.785458 0.0125429 0
0.830701 0.00947585 0
0.877104 0.00679026 0
0.924208 0.00450141 0
0.97142 0.00265507 0
0.999374 0.00128176 0
1 0.00047303 0
1 6.10361e-05 0
1 0 0
1 0 0
1 0 0
1 0 0
1 0 0
1 0 0
1 0 0
0.00163272 0.0926986 0.00775158
0.0272526 0.0924086 0.00520333
0.0677958 0.0910811 0.00386053
0.114275 0.0884871 0.00190738
0.157427 0.086656 0.0011902
0.20032 0.0850996 0.000183108
0.244297 0.0834669 0
0.28957 0.0814679 0
0.33576 0.0794385 0
0.382879 0.0769207 0
0.431266 0.0738689 0
0.480644 0.0704662 0
0.53019 0.0667735 0
0.577096 0.0631266 0
0.622354 0.0594797 0
0.665797 0.0563363 0
0.709972 0.0529335 0
0.755184 0.0491646 0
0.800855 0.045304 0
0.846647 0.0412604 0
0.891768 0.0373846 0
0.936309 0.0336004 0
0.979706 0.0300755 0
0.999863 0.0267796 0
1 0.0237888 0
1 0.0210422 0
1 0.0186465 0
1 0.0166781 0
1 0.0149691 0
1 0.0133211 0
1 0.0117342 0
1 0.0101015 0
1 0.009308 0
0 0.136599 0.0102235
0.00932326 0.13814 0.00270085
0.0426032 0.136675 0
0.0937362 0.133364 0
0.145068 0.129656 0
0.195514 0.126146 0
0.245884 0.12285 0
0.2963 0.119554 0
0.346197 0.116228 0
0.396033 0.112856 0
0.445518 0.109407 0
0.493416 0.106035 0
0.537896 0.103014 0
0.581338 0.0998856 0
0.625605 0.0964065 0
0.67042 0.0928511 0
0.715129 0.08925 0
0.759396 0.0857252 0
0.803189 0.0822766 0
0.846082 0.078996 0
0.888045 0.0759594 0
0.929244 0.0730449 0
0.96965 0.0703136 0
0.998077 0.0678569 0
1 0.0657206 0
1 0.0637217 0
1 0.0617685 0
1 0.0598917 0
1 0.0580301 0
1 0.0562142 0
1 0.0544137 0
1 0.0526436 0
1 0.0517128 0
0 0.184039 0.00283818
0.000183108 0.185901 0
0.0111086 0.184985 0
0.0627451 0.181704 0
0.118959 0.177188 0
0.175433 0.172381 0
0.231525 0.167468 0
0.285512 0.162936 0
0.337194 0.15877 0
0.387457 0.154803 0
0.436881 0.151034 0
0.485222 0.147265 0
0.53019 0.143755 0
0.57467 0.14023 0
0.618967 0.136751 0
0.66273 0.133288 0
0.705745 0.130037 0
0.748089 0.126833 0
0.789685 0.123796 0
0.830411 0.120912 0
0.870115 0.118334 0
0.908949 0.11603 0
0.947448 0.113787 0
0.98436 0.111696 0
0.999969 0.109545 0
1 0.10753 0
1 0.105486 0
1 0.103532 0
1 0.101564 0
1 0.0996872 0
1 0.097734 0
1 0.0958877 0
1 0.0949874 0
0 0.234821 0
0 0.236316 0
0.000320439 0.235492 0
0.0255894 0.232258 0
0.0834058 0.227359 0
0.143969 0.221424 0
0.203052 0.215549 0
0.259617 0.21004 0
0.314366 0.204974 0
0.367361 0.200198 0
0.418647 0.195712 0
0.466972 0.191577 0
0.51194 0.187793 0
0.556176 0.184115 0
0.599802 0.180591 0
0.642741 0.177111 0
0.684718 0.173892 0
0.725719 0.170916 0
0.765927 0.168154 0
0.805417 0.165606 0
0.84477 0.163027 0
0.883848 0.160586 0
0.922744 0.158236 0
0.961364 0.155947 0
0.994339 0.153735 0
1 0.151553 0
1 0.149432 0
1 0.147356 0
1 0.145357 0
1 0.143236 0
1 0.141405 0
1 0.139483 0
1 0.138506 0
0 0.287251 0
0 0.287221 0
0 0.285054 0
0.00309758 0.281453 0
0.0466316 0.276555 0
0.108064 0.27071 0
0.169085 0.264576 0
0.227985 0.258473 0
0.284749 0.25275 0
0.339376 0.247242 0
0.391592 0.242176 0
0.44007 0.237598 0
0.485466 0.23331 0
0.529839 0.229374 0
0.573114 0.225711 0
0.615503 0.222278 0
0.657221 0.219089 0
0.69839 0.216022 0
0.738979 0.213153 0
0.779187 0.210315 0
0.818936 0.207675 0
0.858381 0.205051 0
0.897612 0.202594 0
0.936706 0.200061 0
0.975357 0.197742 0
0.999176 0.195453 0
1 0.19321 0
1 0.191043 0
1 0.188907 0
1 0.186862 0
1 0.184817 0
1 0.182803 0
1 0.181842 0
0 0.335897 0
0 0.335073 0
0 0.332982 0
4.57771e-05 0.329458 0
0.011841 0.324483 0
0.0720378 0.318502 0
0.13402 0.312032 0
0.194003 0.305623 0
0.25211 0.299245 0
0.307851 0.293217 0
0.361013 0.287678 0
0.409812 0.282765 0
0.455375 0.278431 0
0.500038 0.274296 0
0.543999 0.27039 0
0.587167 0.266758 0
0.629526 0.26331 0
0.67126 0.26006 0
0.712505 0.256931 0
0.753079 0.253986 0
0.793271 0.251133 0
0.833204 0.248402 0
0.872786 0.245747 0
0.912169 0.243229 0
0.951293 0.240711 0
0.987854 0.238346 0
1 0.236011 0
1 0.233631 0
1 0.231357 0
1 0.229236 0
1 0.227131 0
1 0.225071 0
1 0.224002 0
0 0.383612 0
0 0.381964 0
0 0.379187 0
0 0.375113 0
0.00062562 0.369894 0
0.0390173 0.363729 0
0.101213 0.357076 0
0.161532 0.350484 0
0.219898 0.344015 0
0.275807 0.337972 0
0.329427 0.332296 0
0.378897 0.327276 0
0.425132 0.322698 0
0.470527 0.318425 0
0.51516 0.314321 0
0.558862 0.310521 0
0.601846 0.306859 0
0.644236 0.303349 0
0.686 0.300023 0
0.727062 0.296925 0
0.767742 0.293935 0
0.808072 0.291035 0
0.848081 0.288258 0
0.8878 0.285557 0
0.92726 0.283009 0
0.966506 0.280446 0
0.996307 0.278019 0
1 0.275624 0
1 0.273289 0
1 0.271061 0
1 0.268757 0
1 0.266575 0
1 0.265553 0
0 0.428138 0
0 0.425528 0
0 0.421881 0
0 0.417411 0
4.57771e-05 0.412116 0
0.0110628 0.406195 0
0.0716869 0.399908 0
0.131334 0.393622 0
0.189273 0.387335 0
0.245243 0.381384 0
0.299062 0.375769 0
0.34876 0.370642 0
0.395544 0.366003 0
0.441535 0.361547 0
0.486686 0.357336 0
0.530968 0.353323 0
0.574533 0.349538 0
0.617365 0.345907 0
0.659617 0.342504 0
0.701167 0.339178 0
0.742351 0.335988 0
0.783108 0.332921 0
0.823529 0.330037 0
0.863584 0.327214 0
0.90341 0.324483 0
0.942916 0.321874 0
0.981445 0.319326 0
0.999847 0.316838 0
1 0.314443 0
1 0.312093 0
1 0.309773 0
1 0.307546 0
1 0.306493 0
0 0.468711 0
0 0.465461 0
0 0.461707 0
0 0.457328 0
0 0.452461 0
0.00239567 0.446967 0
0.0446937 0.44123 0
0.103197 0.435309 0
0.160479 0.429419 0
0.21619 0.423606 0
0.269871 0.418097 0
0.319875 0.412909 0
0.366934 0.40824 0
0.413245 0.403693 0
0.458839 0.399405 0
0.50367 0.395239 0
0.547616 0.391348 0
0.590967 0.38761 0
0.633646 0.384009 0
0.675669 0.380606 0
0.717189 0.37731 0
0.758328 0.374182 0
0.799146 0.371099 0
0.839567 0.368215 0
0.879713 0.365332 0
0.919615 0.362539 0
0.959167 0.359915 0
0.99411 0.357351 0
1 0.354788 0
1 0.352377 0
1 0.350027 0
1 0.347707 0
1 0.346563 0
0 0.506218 0
0 0.502983 0
0 0.499428 0
0 0.495338 0
0 0.490837 0
0.000259403 0.485756 0
0.0200656 0.480354 0
0.0775769 0.474891 0
0.134142 0.469276 0
0.189319 0.463737 0
0.242847 0.45832 0
0.292683 0.453315 0
0.339879 0.448646 0
0.386419 0.444114 0
0.432395 0.439658 0
0.47744 0.435477 0
0.521874 0.431434 0
0.56553 0.427634 0
0.608637 0.423896 0
0.650996 0.420401 0
0.692882 0.417014 0
0.734432 0.413733 0
0.775631 0.410605 0
0.816419 0.407538 0
0.85684 0.404623 0
0.896956 0.401816 0
0.936858 0.399023 0
0.976425 0.396307 0
0.999084 0.393729 0
1 0.391226 0
1 0.388724 0
1 0.386328 0
1 0.385229 0
0 0.540978 0
0 0.537957 0
0 0.534524 0
0 0.530694 0
0 0.526406 0
0 0.52163 0
0.00624094 0.516548 0
0.0548104 0.51136 0
0.110658 0.506004 0
0.16524 0.50071 0
0.218494 0.495445 0
0.268101 0.490593 0
0.315282 0.485939 0
0.361929 0.481453 0
0.40798 0.477043 0
0.453315 0.472847 0
0.497932 0.468727 0
0.541939 0.464836 0
0.585382 0.461006 0
0.628138 0.457389 0
0.670359 0.453941 0
0.712154 0.450584 0
0.753582 0.447318 0
0.794614 0.444221 0
0.83537 0.441169 0
0.875776 0.43827 0
0.915908 0.435447 0
0.955734 0.432715 0
0.991562 0.429999 0
1 0.42742 0
1 0.424842 0
1 0.422385 0
1 0.421256 0
0 0.575677 0
0 0.572778 0
0 0.569467 0
0 0.565835 0
0 0.561761 0
0 0.557336 0
0.000808728 0.55256 0
0.0328679 0.547662 0
0.088014 0.542489 0
0.142016 0.537423 0
0.194858 0.532341 0
0.244175 0.527611 0
0.291234 0.523049 0
0.337865 0.518608 0
0.383978 0.51426 0
0.429557 0.510002 0
0.474372 0.505913 0
0.518593 0.50193 0
0.562234 0.498131 0
0.605173 0.494423 0
0.647669 0.490898 0
0.689769 0.487419 0
0.731487 0.484062 0
0.772808 0.480873 0
0.813779 0.477791 0
0.854444 0.474784 0
0.89482 0.471855 0
0.934936 0.469047 0
0.974716 0.4663 0
0.998611 0.463661 0
1 0.461021 0
1 0.458473 0
1 0.457328 0
0 0.610407 0
0 0.607507 0
0 0.604364 0
0 0.600839 0
0 0.596948 0
0 0.592767 0
4.57771e-05 0.588251 0
0.0124208 0.583612 0
0.0661631 0.578775 0
0.119554 0.573938 0
0.171923 0.569024 0
0.220996 0.56437 0
0.267857 0.55996 0
0.314427 0.55555 0
0.360525 0.551247 0
0.406012 0.547005 0
0.450965 0.542947 0
0.495354 0.538918 0
0.539193 0.535088 0
0.58233 0.531365 0
0.625071 0.527733 0
0.667399 0.524254 0
0.7093 0.520897 0
0.750912 0.517586 0
0.792203 0.514351 0
0.833097 0.511284 0
0.873671 0.508324 0
0.914031 0.505379 0
0.95407 0.502586 0
0.990402 0.499855 0
1 0.4972 0
1 0.494606 0
1 0.493416 0
0 0.644938 0
0 0.64213 0
0 0.639002 0
0 0.63563 0
0 0.631922 0
0 0.627924 0
0 0.623636 0
0.00392157 0.619226 0
0.0452125 0.614603 0
0.098085 0.609979 0
0.149874 0.605264 0
0.198428 0.600855 0
0.245029 0.596551 0
0.291447 0.592248 0
0.337499 0.58793 0
0.382986 0.583734 0
0.427939 0.57969 0
0.472496 0.575647 0
0.516426 0.571801 0
0.559731 0.568078 0
0.60267 0.564385 0
0.645167 0.560861 0
0.687327 0.557458 0
0.729122 0.554101 0
0.770611 0.550851 0
0.811734 0.547723 0
0.852537 0.544701 0
0.893126 0.541665 0
0.93344 0.538735 0
0.973404 0.535943 0
0.998322 0.533227 0
1 0.530556 0
1 0.529381 0
0 0.67921 0
0 0.676478 0
0 0.673472 0
0 0.670253 0
0 0.666697 0
0 0.662821 0
0 0.658717 0
0.000671397 0.654521 0
0.0249485 0.650111 0
0.0771649 0.645685 0
0.128511 0.641169 0
0.176593 0.636896 0
0.222965 0.632685 0
0.269093 0.628519 0
0.314961 0.624369 0
0.360388 0.620233 0
0.405325 0.61622 0
0.449928 0.612207 0
0.493996 0.608286 0
0.537377 0.604547 0
0.580484 0.600824 0
0.623148 0.597269 0
0.665507 0.593805 0
0.707469 0.590448 0
0.749142 0.587106 0
0.790509 0.583932 0
0.831586 0.580835 0
0.872358 0.577813 0
0.91281 0.574899 0
0.953079 0.571969 0
0.989807 0.569192 0
1 0.566384 0
1 0.565209 0
0 0.713314 0
0 0.710689 0
0 0.707759 0
0 0.704646 0
0 0.701228 0
0 0.697551 0
0 0.69366 0
0 0.689632 0
0.0096437 0.685359 0
0.0569924 0.681102 0
0.107759 0.676768 0
0.155444 0.672648 0
0.20145 0.668574 0
0.247333 0.66453 0
0.293034 0.660426 0
0.338354 0.656397 0
0.383246 0.65243 0
0.427771 0.648463 0
0.471855 0.644633 0
0.515297 0.640879 0
0.558526 0.637171 0
0.601373 0.633509 0
0.643854 0.63003 0
0.686046 0.626612 0
0.727947 0.62324 0
0.769421 0.620005 0
0.810666 0.616876 0
0.851575 0.613809 0
0.892271 0.610819 0
0.932708 0.607843 0
0.972824 0.605005 0
0.998245 0.602228 0
1 0.601038 0
0 0.747387 0
0 0.744732 0
0 0.741939 0
0 0.738872 0
0 0.735607 0
0 0.732036 0
0 0.728328 0
0 0.724422 0
0.00170901 0.720455 0
0.0373541 0.71632 0
0.087602 0.7122 0
0.134859 0.708171 0
0.180545 0.704219 0
0.226184 0.700252 0
0.271641 0.696269 0
0.316777 0.692332 0
0.361608 0.688365 0
0.406027 0.684489 0
0.450156 0.68069 0
0.493721 0.676921 0
0.536934 0.673243 0
0.579828 0.669657 0
0.622492 0.666087 0
0.664714 0.662715 0
0.706783 0.659251 0
0.748409 0.655985 0
0.789837 0.652796 0
0.8309 0.649699 0
0.871748 0.646677 0
0.912383 0.643641 0
0.952712 0.640757 0
0.989685 0.637919 0
1 0.636728 0
0 0.781262 0
0 0.778668 0
0 0.775814 0
0 0.7729 0
0 0.76968 0
0 0.766293 0
0 0.762661 0
0 0.758968 0
0.000350958 0.755093 0
0.0186465 0.751186 0
0.0681163 0.747173 0
0.1149 0.743343 0
0.16022 0.739559 0
0.20557 0.735683 0
0.250767 0.731838 0
0.295842 0.727886 0
0.340505 0.724025 0
0.384878 0.720226 0
0.42887 0.716411 0
0.472374 0.712688 0
0.515648 0.709056 0
0.558602 0.705486 0
0.601282 0.701961 0
0.643687 0.698466 0
0.685771 0.695094 0
0.727596 0.691814 0
0.769116 0.688594 0
0.810346 0.68545 0
0.851438 0.682261 0
0.892164 0.67924 0
0.932708 0.676295 0
0.97319 0.673426 0
0.990127 0.672236 0
0 0.814908 0
0 0.81236 0
0 0.809689 0
0 0.806775 0
0 0.803693 0
0 0.800305 0
0 0.796857 0
0 0.793256 0
0 0.789578 0
0.00712596 0.785763 0
0.0491188 0.781949 0
0.0955367 0.778225 0
0.140536 0.774548 0
0.185595 0.770764 0
0.230549 0.767025 0
0.275273 0.763272 0
0.319722 0.759503 0
0.363989 0.755734 0
0.407935 0.751919 0
0.451423 0.748257 0
0.494621 0.744656 0
0.537682 0.741024 0
0.580407 0.737514 0
0.622843 0.734066 0
0.665049 0.730694 0
0.70695 0.727382 0
0.748577 0.724147 0
0.790005 0.720958 0
0.831144 0.7178 0
0.872053 0.714763 0
0.912688 0.711803 0
0.953384 0.708812 0
0.970062 0.707622 0
0 0.848539 0
0 0.846067 0
0 0.843412 0
0 0.840604 0
0 0.837583 0
0 0.834379 0
0 0.831037 0
0 0.827558 0
0 0.823987 0
0.00151064 0.820294 0
0.0306249 0.816541 0
0.076524 0.812985 0
0.121187 0.809461 0
0.165927 0.805798 0
0.210605 0.802152 0
0.255131 0.798489 0
0.299397 0.794781 0
0.343496 0.791074 0
0.387304 0.787411 0
0.430701 0.78381 0
0.473899 0.780224 0
0.51696 0.776562 0
0.559701 0.773068 0
0.602197 0.769635 0
0.644434 0.766247 0
0.686442 0.762936 0
0.728191 0.75967 0
0.769711 0.756405 0
0.811002 0.753277 0
0.851987 0.75021 0
0.892866 0.747204 0
0.933669 0.744244 0
0.94995 0.743069 0
0 0.882109 0
0 0.879683 0
0 0.877089 0
0 0.874342 0
0 0.871382 0
0 0.868284 0
0 0.865019 0
0 0.861708 0
0 0.858259 0
1.5259e-05 0.854704 0
0.0140078 0.851148 0
0.0578775 0.8477 0
0.102235 0.844175 0
0.146685 0.840681 0
0.191104 0.837064 0
0.23537 0.833494 0
0.279438 0.829908 0
0.323339 0.826322 0
0.367071 0.82266 0
0.410315 0.819165 0
0.453513 0.815564 0
0.496422 0.812055 0
0.539239 0.80853 0
0.581689 0.805158 0
0.624018 0.801785 0
0.666102 0.798352 0
0.707973 0.795041 0
0.749615 0.791852 0
0.790997 0.788693 0
0.832105 0.785611 0
0.872999 0.782589 0
0.91397 0.779583 0
0.929885 0.778424 0
0 0.915709 0
0 0.913344 0
0 0.910704 0
0 0.908034 0
0 0.90518 0
0 0.902129 0
0 0.899001 0
0 0.895735 0
0 0.892424 0
0 0.889021 0
0.00425727 0.885527 0
0.0395972 0.882216 0
0.0836042 0.878889 0
0.127733 0.875471 0
0.171893 0.871992 0
0.215961 0.868452 0
0.259815 0.864942 0
0.303548 0.861418 0
0.347066 0.857862 0
0.390265 0.854322 0
0.433371 0.850828 0
0.476219 0.847379 0
0.519051 0.843931 0
0.561547 0.840528 0
0.603891 0.83711 0
0.645991 0.833768 0
0.687892 0.830503 0
0.729534 0.827283 0
0.770993 0.824048 0
0.812238 0.820951 0
0.853223 0.817899 0
0.894331 0.814832 0
0.909911 0.813672 0
0 0.949264 0
0 0.946883 0
0 0.944381 0
0 0.941665 0
0 0.938964 0
0 0.936004 0
0 0.932876 0
0 0.929747 0
0 0.926513 0
0 0.923201 0
0.000762951 0.91986 0
0.0217594 0.91664 0
0.0653544 0.913375 0
0.109224 0.910063 0
0.153079 0.906722 0
0.196841 0.903334 0
0.240497 0.899901 0
0.284062 0.896406 0
0.327443 0.892866 0
0.370596 0.889418 0
0.413535 0.885985 0
0.456367 0.882567 0
0.499046 0.879149 0
0.541573 0.8757 0
0.583886 0.872358 0
0.625986 0.869062 0
0.667887 0.865797 0
0.709606 0.862577 0
0.751095 0.859419 0
0.792416 0.856291 0
0.833509 0.853162 0
0.874723 0.850065 0
0.889952 0.848951 0
0 0.982742 0
0 0.980392 0
0 0.977966 0
0 0.975372 0
0 0.972625 0
0 0.969757 0
0 0.966781 0
0 0.963714 0
0 0.960586 0
0 0.957336 0
0 0.954086 0
0.00872816 0.950927 0
0.0473945 0.947799 0
0.0909743 0.94461 0
0.134661 0.941329 0
0.178195 0.938003 0
0.221637 0.93463 0
0.264988 0.931258 0
0.308156 0.927871 0
0.35108 0.924498 0
0.393927 0.921111 0
0.436667 0.917708 0
0.479332 0.914229 0
0.521782 0.910887 0
0.564034 0.907561 0
0.60618 0.90428 0
0.648096 0.90103 0
0.68986 0.897826 0
0.73138 0.894636 0
0.772732 0.891463 0
0.813733 0.888334 0
0.854307 0.885115 0
0.871107 0.883528 0
0 0.999969 0
0 0.999939 0
0 0.999893 0
0 0.999863 0
0 0.999832 0
0 0.999405 0
0 0.997482 0
0 0.995163 0
0 0.992798 0
0 0.990326 0
0 0.987869 0
0.00195315 0.985245 0
0.0297856 0.982147 0
0.0730907 0.979019 0
0.116472 0.975799 0
0.159747 0.972564 0
0.202976 0.969314 0
0.246128 0.966018 0
0.289128 0.962707 0
0.331884 0.959381 0
0.374624 0.956008 0
0.417273 0.952667 0
0.45977 0.94934 0
0.502174 0.946029 0
0.544411 0.942748 0
0.586572 0.939406 0
0.628458 0.936141 0
0.670192 0.932754 0
0.711604 0.929091 0
0.752804 0.924788 0
0.793317 0.919997 0
0.832578 0.914992 0
0.857542 0.911788 0
0 1 0
0 1 0
0 1 0
0 1 0
0 1 0
0 1 0
0 1 0
0 1 0
0 1 0
