Saturated.cube
TITLE "Created by (at)Art_Is_War on Twitter *sipstea*"
LUT_3D_SIZE 9
0.0107271 0.0115053 0.0148775
0.12047 0.0218662 0.0197147
0.263035 0.0237278 0.00448615
0.441199 0.0162356 0
0.639948 0.00367742 0
0.849317 0 0
1 0 0
1 0 0
1 0 0
0 0.184039 0.00283818
0.118959 0.177188 0
0.337194 0.15877 0
0.53019 0.143755 0
0.705745 0.130037 0
0.870115 0.118334 0
0.999969 0.109545 0
1 0.101564 0
1 0.0949874 0
0 0.383612 0
0.00062562 0.369894 0
0.219898 0.344015 0
0.425132 0.322698 0
0.601846 0.306859 0
0.767742 0.293935 0
0.92726 0.283009 0
1 0.273289 0
1 0.265553 0
0 0.540978 0
0 0.526406 0
0.110658 0.506004 0
0.315282 0.485939 0
0.497932 0.468727 0
0.670359 0.453941 0
0.83537 0.441169 0
0.991562 0.429999 0
1 0.421256 0
0 0.67921 0
0 0.666697 0
0.0249485 0.650111 0
0.222965 0.632685 0
0.405325 0.61622 0
0.580484 0.600824 0
0.749142 0.587106 0
0.91281 0.574899 0
1 0.565209 0
0 0.814908 0
0 0.803693 0
0 0.789578 0
0.140536 0.774548 0
0.319722 0.759503 0
0.494621 0.744656 0
0.665049 0.730694 0
0.831144 0.7178 0
0.970062 0.707622 0
0 0.949264 0
0 0.938964 0
0 0.926513 0
0.0653544 0.913375 0
0.240497 0.899901 0
0.413535 0.885985 0
0.583886 0.872358 0
0.751095 0.859419 0
0.889952 0.848951 0
0 1 0
0 1 0
0 1 0
0.00367742 1 0
0.166461 1 0
0.33724 1 0
0.515663 0.997925 0
0.686503 0.979446 0
0.823087 0.961212 0
0 1 0
0 1 0
0 1 0
0.000915541 1 0
0.185275 1 0
0.37467 1 0
0.544915 1 0
0.693889 1 0.085771
0.808194 1 0.190356
0.0349279 0.0173495 0.0753338
0.155612 0.0137331 0.132342
0.311025 0.0090486 0.127535
0.496056 0.00430304 0.110567
0.698283 1.5259e-05 0.0826886
0.901961 0 0.0444038
1 0 0.0043183
1 0 0
1 0 0
0 0.171466 0.198001
0.148882 0.159533 0.10103
0.391302 0.131991 0.0736553
0.580423 0.117754 0.0338598
0.750744 0.105562 0.00335698
0.908843 0.0961166 0.000198367
1 0.0885786 0
1 0.0814374 0
1 0.0757458 0
0 0.367681 0.132021
0.000701915 0.358144 0.0296025
0.245426 0.326665 4.57771e-05
0.463539 0.301167 0
0.641459 0.284962 0
0.80589 0.272816 0
0.963867 0.262486 0
1 0.253712 0
1 0.246586 0
0 0.525124 0.0797284
0 0.514031 0.00621042
0.120974 0.493843 0
0.338979 0.470283 0
0.529122 0.450752 0
0.704051 0.435142 0
0.869581 0.422202 0
0.999954 0.411322 0
1 0.402914 0
0 0.664561 0.0460975
0 0.654337 0
0.03299 0.638788 0
0.238071 0.62002 0
0.428107 0.60148 0
0.608133 0.58471 0
0.779461 0.570031 0
0.944015 0.557473 0
1 0.547906 0
0 0.801038 0.0207675
0 0.791409 0
0 0.778408 0
0.152132 0.763073 0
0.336751 0.746838 0
0.51667 0.730648 0
0.690715 0.715541 0
0.858991 0.701991 0
0.996796 0.691585 0
0 0.935912 0.00730907
0 0.926833 0
0 0.915373 0
0.0759442 0.902358 0
0.254398 0.888258 0
0.431327 0.873472 0
0.605325 0.858839 0
0.775265 0.845151 0
0.914809 0.834226 0
0 1 0.000244144
0 1 0
0 1 0
0.00968948 1 0
0.178714 1 0
0.354177 0.999725 0
0.53901 0.987579 0
0.70869 0.964828 0
0.842603 0.948333 1.5259e-05
0 1 0
0 1 0
0 1 0
0.00868238 1 0
0.209384 1 0
0.396948 1 0.0334325
0.56524 1 0.12076
0.711376 1 0.212863
0.823072 1 0.306691
0.0400854 0.014786 0.169757
0.17084 0.00807202 0.260319
0.346975 0.00296025 0.288487
0.545266 0 0.291264
0.752651 0 0.282719
0.948867 0 0.256901
1 0 0.221775
1 0 0.182727
1 0 0.14963
0.000717174 0.150256 0.417655
0.177783 0.128038 0.446708
0.439384 0.100267 0.366857
0.628458 0.0889296 0.297337
0.793805 0.0794995 0.247349
0.947356 0.0726635 0.205127
1 0.0664073 0.167651
1 0.0604257 0.132662
1 0.0551308 0.103792
0 0.343099 0.407431
0.00326543 0.334188 0.343572
0.279438 0.303075 0.214923
0.515999 0.272114 0.194919
0.688457 0.258549 0.166491
0.848798 0.248386 0.137102
0.995758 0.239719 0.107942
1 0.231907 0.0789807
1 0.225589 0.0542
0 0.503914 0.340291
0 0.496391 0.26302
0.122469 0.481498 0.163302
0.36556 0.452308 0.108186
0.568185 0.428717 0.0895399
0.744869 0.412482 0.0713359
0.909377 0.400183 0.0503853
1 0.389868 0.0275883
1 0.382055 0.011429
0 0.646113 0.292927
0 0.638498 0.219379
0.0373693 0.62623 0.137011
0.250172 0.606821 0.0735637
0.453361 0.584848 0.0393072
0.64126 0.565499 0.0187533
0.815335 0.549996 0.00791943
0.980163 0.53727 0.000274662
1 0.52781 0
0 0.784161 0.256229
0 0.776471 0.187427
3.0518e-05 0.765621 0.114977
0.161089 0.750881 0.0537728
0.353231 0.733211 0.0117647
0.541222 0.714809 0.000213626
0.720638 0.698009 0
0.891661 0.683558 0
1 0.672786 0
0 0.919905 0.226184
0 0.912337 0.161425
0 0.902419 0.09514
0.085008 0.890318 0.0375525
0.267124 0.875883 0.00401312
0.449882 0.859739 0
0.629374 0.84361 0
0.803433 0.828428 0
0.944457 0.816785 0
0 1 0.20029
0 1 0.138689
0 1 0.0767681
0.0168765 1 0.0233463
0.190448 0.999908 0.000259403
0.373526 0.995392 0
0.562753 0.971969 0.00856031
0.731456 0.95024 0.0604562
0.862531 0.935683 0.125872
0 1 0.17789
0 1 0.118791
0 1 0.0869917
0.0309453 1 0.111788
0.233555 1 0.151522
0.418952 1 0.202045
0.585428 1 0.266346
0.730022 1 0.346319
0.8392 1 0.429374
0.0540932 0.0131991 0.261204
0.186099 0.00459297 0.384634
0.372641 1.5259e-05 0.453849
0.585 0 0.481697
0.797269 0 0.489158
0.987655 0 0.468696
1 0 0.437613
1 0 0.39884
1 0 0.363912
0.00703441 0.134279 0.609476
0.198566 0.113466 0.649897
0.445701 0.0841077 0.623789
0.65536 0.0660563 0.557305
0.824933 0.0567788 0.494194
0.9785 0.0512245 0.440208
1 0.0458381 0.394049
1 0.0405127 0.352865
1 0.0359503 0.320043
0 0.317586 0.652308
0.0460059 0.30045 0.626062
0.313954 0.2645 0.604196
0.566155 0.23856 0.492256
0.732631 0.230991 0.423178
0.888777 0.224079 0.375708
1 0.217258 0.335851
1 0.210803 0.299763
1 0.205447 0.270726
0 0.480598 0.584558
0 0.471458 0.531746
0.127169 0.462013 0.454856
0.397436 0.430686 0.343008
0.616587 0.401968 0.326467
0.789136 0.387717 0.301228
0.949798 0.377234 0.273487
1 0.368246 0.24535
1 0.361486 0.221363
0 0.625803 0.529168
0 0.618891 0.466712
0.0435035 0.610925 0.386099
0.252872 0.595178 0.296544
0.479194 0.56762 0.249744
0.67808 0.544854 0.23151
0.853742 0.528847 0.213443
0.9991 0.516442 0.192798
1 0.507668 0.173587
0 0.765911 0.484443
0 0.759335 0.420722
0.000640879 0.751324 0.346532
0.165087 0.739345 0.272587
0.365026 0.720775 0.21529
0.565499 0.698924 0.182361
0.75201 0.679942 0.161883
0.925673 0.664591 0.143648
1 0.653803 0.127535
0 0.903136 0.447776
0 0.896651 0.385306
0 0.888747 0.316915
0.0915084 0.878538 0.251682
0.275792 0.864393 0.195377
0.465721 0.846784 0.152895
0.65272 0.82858 0.12401
0.83183 0.811856 0.102434
0.97496 0.799237 0.0955825
0 1 0.416648
0 1 0.356115
0 1 0.29221
0.0242161 0.999954 0.232578
0.199527 0.999084 0.17966
0.391714 0.983124 0.16173
0.583459 0.957946 0.187304
0.751858 0.937758 0.230274
0.880537 0.924941 0.281544
0 1 0.390311
0 1 0.332952
0 1 0.305653
0.056733 1 0.306081
0.255299 1 0.321828
0.438804 1 0.354314
0.60441 1 0.404868
0.747982 1 0.472557
0.855055 1 0.544686
0.0700999 0.0124971 0.368734
0.205402 0.00408942 0.517555
0.396872 0 0.615061
0.61828 0 0.668849
0.830091 0 0.682658
0.999786 0 0.664714
1 0 0.634241
1 0 0.593256
1 0 0.555856
0.024033 0.12105 0.789639
0.218296 0.100694 0.827939
0.451591 0.0729839 0.821973
0.664973 0.0515602 0.77438
0.841566 0.0404517 0.710918
0.994583 0.033875 0.650752
1 0.0284886 0.59826
1 0.0234226 0.551781
1 0.0193179 0.515282
0 0.29662 0.854566
0.0880446 0.277546 0.83357
0.331365 0.249088 0.809796
0.571633 0.221408 0.74696
0.757671 0.209674 0.663523
0.918166 0.20325 0.59794
1 0.197711 0.54612
1 0.192157 0.502144
1 0.187457 0.468208
0 0.459434 0.793317
0.000457771 0.447013 0.758267
0.177127 0.429877 0.726833
0.435492 0.392599 0.704219
0.666331 0.37113 0.586542
0.830106 0.363073 0.527733
0.984955 0.355428 0.484977
1 0.348302 0.447974
1 0.342535 0.418799
0 0.60618 0.73753
0 0.59794 0.689326
0.0670329 0.589426 0.631281
0.250095 0.581125 0.547066
0.507897 0.54876 0.455528
0.720226 0.52163 0.439918
0.892912 0.507073 0.416968
1 0.496223 0.390875
1 0.488472 0.368032
0 0.748241 0.688807
0 0.741482 0.633814
0.00254826 0.734661 0.568215
0.168505 0.726696 0.49131
0.368963 0.710353 0.411276
0.58883 0.68365 0.36939
0.784634 0.661738 0.351171
0.959747 0.64593 0.333242
1 0.63537 0.316213
0 0.886885 0.647547
0 0.880796 0.590127
0 0.874144 0.525063
0.0981308 0.866316 0.45687
0.279759 0.854215 0.388998
0.477211 0.835508 0.335393
0.674754 0.814359 0.30399
0.859678 0.79585 0.283894
0.999008 0.782635 0.283436
0 1 0.612192
0 0.999985 0.554574
0 0.999954 0.492042
0.0324102 0.998871 0.429984
0.207477 0.991272 0.372015
0.407248 0.970108 0.348165
0.601434 0.945785 0.357641
0.771588 0.926238 0.389227
0.898894 0.914656 0.431006
0 1 0.582589
0 1 0.528923
0 1 0.497215
0.082414 1 0.48513
0.275944 1 0.485512
0.456825 1 0.501625
0.621973 1 0.536919
0.765148 1 0.591409
0.870771 0.999634 0.653498
0.0874495 0.00727855 0.492073
0.227405 0.00062562 0.657984
0.422553 0 0.773358
0.648341 0 0.842954
0.854276 0 0.865309
1 0 0.856947
1 0 0.82742
1 0 0.783581
1 0 0.74432
0.0425116 0.108568 0.96054
0.237736 0.0879683 0.994675
0.462333 0.061677 0.999222
0.671077 0.0402533 0.970535
0.850706 0.0275883 0.913069
0.999344 0.0193027 0.853147
1 0.0133211 0.797604
1 0.00816358 0.747143
1 0.00421149 0.707591
0 0.278202 0.999969
0.120928 0.259236 0.999527
0.350179 0.235294 0.993255
0.571206 0.211337 0.950439
0.766049 0.195102 0.883909
0.936721 0.18616 0.814679
1 0.179934 0.754757
1 0.174624 0.703304
1 0.170428 0.664469
0 0.439582 0.988296
0.0112459 0.425086 0.961028
0.221759 0.405341 0.939071
0.448173 0.377447 0.917601
0.678706 0.350805 0.850065
0.859236 0.340536 0.764904
0.999268 0.334447 0.702358
1 0.328756 0.653223
1 0.323964 0.617487
0 0.586877 0.935546
0 0.576593 0.898604
0.106996 0.564401 0.862165
0.294224 0.549264 0.830091
0.555322 0.509697 0.797482
0.769955 0.49221 0.684642
0.933425 0.483192 0.634806
1 0.475013 0.595682
1 0.468818 0.56611
0 0.729946 0.886198
0 0.722118 0.840848
0.0178225 0.714382 0.790158
0.186343 0.707256 0.731365
0.364324 0.69839 0.642786
0.616587 0.665751 0.566735
0.824079 0.64004 0.55111
0.992523 0.625071 0.529625
1 0.615778 0.509224
0 0.869978 0.842313
0 0.863478 0.79173
0 0.857191 0.73492
0.110811 0.851026 0.672175
0.282124 0.842664 0.597986
0.482856 0.825177 0.523751
0.697688 0.79968 0.485405
0.890455 0.778424 0.468513
0.999954 0.765621 0.471824
0 1 0.803677
0 0.997711 0.750637
0 0.993744 0.692454
0.0441596 0.989532 0.632029
0.21799 0.979477 0.57203
0.419348 0.958114 0.53373
0.617105 0.934783 0.523369
0.79144 0.915236 0.542428
0.918166 0.904616 0.574823
0 1 0.771054
0 1 0.721172
0 1 0.684062
0.109728 1 0.661357
0.296559 1 0.647044
0.473136 1 0.64535
0.637537 1 0.663478
0.781689 1 0.704448
0.886381 0.997833 0.756039
0.105226 0.00314336 0.625391
0.250813 1.5259e-05 0.80322
0.449531 0 0.931075
0.676066 0 0.998825
0.877409 0 1
1 0 1
1 0 0.998688
1 0 0.969894
1 0 0.929976
0.0613107 0.0961471 1
0.257252 0.0749676 1
0.475868 0.0498512 1
0.678004 0.0300298 1
0.85745 0.0169223 1
0.999939 0.00709545 1
1 0.00227359 0.988998
1 0.00157168 0.939101
1 0.000976577 0.897795
0 0.261677 1
0.148943 0.243473 1
0.369253 0.222126 1
0.57731 0.201312 1
0.769574 0.18436 1
0.946868 0.17261 0.999252
1 0.164675 0.958129
1 0.15874 0.902403
1 0.154406 0.859892
0 0.421317 1
0.043595 0.405997 1
0.255497 0.386603 1
0.465934 0.363714 1
0.676921 0.340337 1
0.870192 0.324575 0.987091
1 0.316411 0.919097
1 0.310552 0.860243
1 0.306172 0.817868
0 0.568276 1
0 0.556222 1
0.147646 0.541619 1
0.341558 0.52314 0.999985
0.560174 0.495064 0.999573
0.790677 0.468986 0.951614
0.965484 0.46009 0.867887
1 0.454078 0.80914
1 0.449134 0.769848
0 0.711788 1
0 0.702693 0.999924
0.0518807 0.692622 0.993225
0.224414 0.682109 0.96672
0.398764 0.668757 0.931029
0.672602 0.628519 0.866438
0.872847 0.612024 0.783597
0.999985 0.601785 0.741482
1 0.594705 0.711543
0 0.852842 0.999695
0 0.845487 0.986282
0 0.838117 0.942916
0.135119 0.831449 0.893675
0.295308 0.82504 0.832975
0.478599 0.814603 0.740719
0.724971 0.782208 0.677409
0.92665 0.758022 0.664622
1 0.747845 0.662303
0 0.99089 0.987991
0 0.985702 0.94519
0 0.979522 0.893599
0.0627604 0.973709 0.839857
0.236225 0.962982 0.782467
0.428428 0.946212 0.72546
0.628779 0.924956 0.687129
0.8121 0.904356 0.691768
0.939239 0.894362 0.715206
0 1 0.957855
0 1 0.90808
0 1 0.865095
0.140261 1 0.834134
0.318868 1 0.807996
0.488289 1 0.788922
0.650874 0.999969 0.786923
0.797391 0.999023 0.811841
0.902342 0.998993 0.852659
0.123491 0.00195315 0.76846
0.274769 0 0.94963
0.478035 0 1
0.700557 0 1
0.900008 0 1
1 0 1
1 0 1
1 0 1
1 0 1
0.0804456 0.0836347 1
0.276921 0.0615396 1
0.490761 0.0381476 1
0.686564 0.0200809 1
0.864393 0.00689708 1
1 0.00209049 1
1 0.00077821 1
1 1.5259e-05 1
1 0 1
0.000228885 0.246067 1
0.174289 0.228855 1
0.388113 0.209583 1
0.587488 0.190906 1
0.774746 0.174533 1
0.953475 0.161425 1
1 0.151781 1
1 0.144579 1
1 0.139742 1
0 0.404242 1
0.0749065 0.38883 1
0.283726 0.370504 1
0.48426 0.350637 1
0.681788 0.330358 1
0.87361 0.313497 1
1 0.302159 1
1 0.294652 1
1 0.289921 1
0 0.550378 1
0.0019379 0.53753 1
0.183536 0.522026 1
0.376028 0.503914 1
0.576562 0.481407 1
0.788479 0.45774 1
0.979538 0.442985 1
1 0.435355 1
1 0.43064 0.977157
0 0.694026 1
0 0.683513 1
0.0884413 0.671809 1
0.26598 0.65864 1
0.449134 0.640787 1
0.672114 0.611078 1
0.902113 0.58613 1
1 0.578393 0.970932
1 0.573358 0.9252
0 0.835569 1
0 0.8271 1
0.00827039 0.818402 1
0.169085 0.809628 1
0.330724 0.800168 1
0.501152 0.788586 0.999588
0.777127 0.751461 0.927123
0.970657 0.732586 0.88542
1 0.728496 0.860166
0 0.975418 1
0 0.968383 1
0 0.96141 1
0.0906233 0.954452 1
0.267048 0.942184 0.990524
0.443183 0.930724 0.935256
0.632212 0.916747 0.860594
0.835508 0.892576 0.841215
0.963821 0.882994 0.855894
0 1 1
0 1 1
0.0010071 1 0.999893
0.175143 1 0.995117
0.345632 1 0.968505
0.504784 1 0.935973
0.661082 0.999878 0.910277
0.811704 0.995697 0.914504
0.91577 0.993362 0.944396
0.141283 0 0.91165
0.299611 0 1
0.507332 0 1
0.721828 0 1
0.921736 0 1
1 0 1
1 0 1
1 0 1
1 0 1
0.0991989 0.0706035 1
0.296544 0.0481422 1
0.506462 0.0263218 1
0.696742 0.0102235 1
0.872557 0.00244144 1
1 0.000534066 1
1 0 1
1 0 1
1 0 1
0.0034638 0.231601 1
0.198077 0.215061 1
0.406897 0.197253 1
0.600076 0.180316 1
0.782406 0.16492 1
0.959976 0.151278 1
1 0.140536 1
1 0.132006 1
1 0.12639 1
0 0.388312 1
0.103395 0.373114 1
0.309194 0.355734 1
0.502907 0.337881 1
0.691279 0.320027 1
0.878141 0.303563 1
1 0.290517 1
1 0.281239 1
1 0.275456 1
0 0.533639 1
0.017319 0.520165 1
0.215228 0.504631 1
0.40444 0.487572 1
0.594507 0.468284 1
0.791882 0.447868 1
0.982986 0.431083 1
1 0.420386 1
1 0.414542 1
0 0.676844 1
0 0.665507 1
0.123156 0.652583 1
0.302861 0.638315 1
0.485023 0.620813 1
0.686717 0.597528 1
0.901167 0.573404 1
1 0.560006 1
1 0.554101 1
0 0.818357 1
0 0.809049 1
0.0367437 0.798825 1
0.205921 0.788342 1
0.37293 0.775967 1
0.55462 0.758221 1
0.785306 0.726299 1
0.995727 0.707301 1
1 0.709224 1
0 0.958709 1
0 0.950912 1
0 0.942794 1
0.127138 0.933364 1
0.308644 0.919478 1
0.478431 0.908583 1
0.639292 0.901534 1
0.870314 0.875807 0.995789
0.989929 0.869093 0.993942
0 1 1
0 1 1
0.0319066 1 1
0.214267 1 1
0.378592 1 1
0.527657 0.999039 1
0.670161 1 1
0.82385 0.99646 0.998154
0.922713 0.993271 1
