Saturated.cube
TITLE "Created by (at)Art_Is_War on Twitter *sipstea*"
LUT_3D_SIZE 5
0.0107271 0.0115053 0.0148775
0.263035 0.0237278 0.00448615
0.639948 0.00367742 0
1 0 0
1 0 0
0 0.383612 0
0.219898 0.344015 0
0.601846 0.306859 0
0.92726 0.283009 0
1 0.265553 0
0 0.67921 0
0.0249485 0.650111 0
0.405325 0.61622 0
0.749142 0.587106 0
1 0.565209 0
0 0.949264 0
0 0.926513 0
0.240497 0.899901 0
0.583886 0.872358 0
0.889952 0.848951 0
0 1 0
0 1 0
0.185275 1 0
0.544915 1 0
0.808194 1 0.190356
0.0400854 0.014786 0.169757
0.346975 0.00296025 0.288487
0.752651 0 0.282719
1 0 0.221775
1 0 0.14963
0 0.343099 0.407431
0.279438 0.303075 0.214923
0.688457 0.258549 0.166491
0.995758 0.239719 0.107942
1 0.225589 0.0542
0 0.646113 0.292927
0.0373693 0.62623 0.137011
0.453361 0.584848 0.0393072
0.815335 0.549996 0.00791943
1 0.52781 0
0 0.919905 0.226184
0 0.902419 0.09514
0.267124 0.875883 0.00401312
0.629374 0.84361 0
0.944457 0.816785 0
0 1 0.17789
0 1 0.0869917
0.233555 1 0.151522
0.585428 1 0.266346
0.8392 1 0.429374
0.0700999 0.0124971 0.368734
0.396872 0 0.615061
0.830091 0 0.682658
1 0 0.634241
1 0 0.555856
0 0.29662 0.854566
0.331365 0.249088 0.809796
0.757671 0.209674 0.663523
1 0.197711 0.54612
1 0.187457 0.468208
0 0.60618 0.73753
0.0670329 0.589426 0.631281
0.507897 0.54876 0.455528
0.892912 0.507073 0.416968
1 0.488472 0.368032
0 0.886885 0.647547
0 0.874144 0.525063
0.279759 0.854215 0.388998
0.674754 0.814359 0.30399
0.999008 0.782635 0.283436
0 1 0.582589
0 1 0.497215
0.275944 1 0.485512
0.621973 1 0.536919
0.870771 0.999634 0.653498
0.105226 0.00314336 0.625391
0.449531 0 0.931075
0.877409 0 1
1 0 0.998688
1 0 0.929976
0 0.261677 1
0.369253 0.222126 1
0.769574 0.18436 1
1 0.164675 0.958129
1 0.154406 0.859892
0 0.568276 1
0.147646 0.541619 1
0.560174 0.495064 0.999573
0.965484 0.46009 0.867887
1 0.449134 0.769848
0 0.852842 0.999695
0 0.838117 0.942916
0.295308 0.82504 0.832975
0.724971 0.782208 0.677409
1 0.747845 0.662303
0 1 0.957855
0 1 0.865095
0.318868 1 0.807996
0.650874 0.999969 0.786923
0.902342 0.998993 0.852659
0.141283 0 0.91165
0.507332 0 1
0.921736 0 1
1 0 1
1 0 1
0.0034638 0.231601 1
0.406897 0.197253 1
0.782406 0.16492 1
1 0.140536 1
1 0.12639 1
0 0.533639 1
0.215228 0.504631 1
0.594507 0.468284 1
0.982986 0.431083 1
1 0.414542 1
0 0.818357 1
0.0367437 0.798825 1
0.37293 0.775967 1
0.785306 0.726299 1
1 0.709224 1
0 1 1
0.0319066 1 1
0.378592 1 1
0.670161 1 1
0.922713 0.993271 1
